src/topics/icons/prott.svg

<svg height="197" preserveAspectRatio="xMidYMid" viewBox="0 0 512 197" width="512" xmlns="http://www.w3.org/2000/svg"><path d="m0 180.242943v-37.531213c0-8.760958 7.73169931-15.806485 17.2768558-15.806485h35.3256563c23.679095 0 29.9159174-22.631456 29.9159174-34.5843441 0-9.1775639-2.8978556-17.7669794-7.9032426-23.6484622-5.2994611-6.0959119-12.4613917-9.0672861-22.0188013-9.0672861h-35.3195298c-9.54515649.0061266-17.2768558-7.0577794-17.2768558-15.7881055 0-8.7119464 7.73169931-15.8064851 17.2768558-15.8064851h35.3256563c19.9235231 0 37.3596691 7.4866375 49.0920019 21.1120728 9.87599 11.4566384 15.328615 26.8158858 15.328615 43.1921395 0 32.0724607-22.5579375 66.1911877-64.4267434 66.1911877h-18.0794332v21.730854c0 8.711947-7.7194462 15.806485-17.2400966 15.806485-9.54515649.006127-17.2768558-7.088412-17.2768558-15.800358zm194.027668-152.2446341c-11.02778 0-20.327875 3.3695996-26.221611 9.3491071-.367593-5.9427483-7.137424-9.0550329-13.815358-9.0550329-7.229323 0-15.010034 3.5840286-15.010034 11.4443853l-1.102778 103.1097456c0 3.737193 1.66642 6.886237 4.82159 9.110172 2.71406 1.911482 6.328721 2.965248 10.170064 2.965248 6.959755 0 14.458646-3.663674 14.458646-11.7017l1.090525-61.2531935c0-16.3211149 10.37224-27.7103613 25.222984-27.7103613 1.776698 0 3.602408.1592901 5.550649.5023766 8.001268.7780712 12.583923-6.0468995 12.90863-12.7432128.294074-6.2674551-3.185803-12.9270091-11.57917-13.6193087-2.174923-.2695679-4.349846-.4043519-6.494137-.4043519zm149.732751 63.1279158c0 17.3013623-6.18781 33.1874923-17.399387 44.7421553-11.395373 11.72008-27.293756 18.177458-44.766662 18.177458-17.472905 0-33.371288-6.457378-44.766661-18.177458-11.229956-11.554663-17.41164-27.44692-17.41164-44.7421553.012253-35.9873231 26.748494-63.1279158 62.196681-63.1279158 35.435934 0 62.159922 25.5231849 62.159922 63.1217892zm-95.083973.0918982c0 19.5314241 14.458645 34.8171531 32.911798 34.8171531 18.459279 0 32.917924-15.279602 32.917924-34.8110266 0-19.7274737-14.458645-35.1969988-32.917924-35.1969988-18.453153 0-32.911798 15.4633986-32.911798 35.1969988zm262.975801 43.2656581c-1.176296-5.103412-5.023766-8.405619-9.790218-8.405619-.704552 0-1.409105.061265-2.205556.220555-2.793704.67392-5.268828 1.017007-7.333474 1.017007-5.593535 0-8.197317-2.389353-8.197317-7.53565v-60.677298h14.489278c7.021021 0 10.219077-6.6656806 10.219077-12.8534907 0-6.2000631-3.198056-12.8657437-10.219077-12.8657437h-14.489278v-21.9575359c.006127-7.8419771-7.743952-11.4260057-14.954895-11.4260057-7.204816 0-14.948769 3.57790206-14.948769 11.4260057v21.9514094h-54.771309v-21.9514094c.012253-7.8419771-7.737826-11.4260057-14.948769-11.4260057-7.204816 0-14.948768 3.57790206-14.948768 11.4260057v21.9514094h-8.834478c-3.124538 0-5.685433 1.4091053-7.413119 4.0618991-1.427485 2.1810499-2.217809 5.1462975-2.217809 8.3321007 0 6.6166682 3.308334 13.3313611 9.630928 13.3313611h8.822224v67.955633c0 16.645822 10.56829 26.987429 27.569451 26.987429 7.106792 0 14.875251-1.776698 23.097073-5.256575 6.291962-2.756945 7.927749-9.349107 6.788212-14.305482-1.18855-5.103412-5.03602-8.405619-9.802472-8.405619-.692299 0-1.409105.061265-2.193302.220555-2.805958.67392-5.268829 1.017007-7.351854 1.017007-5.587409 0-8.185064-2.389353-8.185064-7.53565v-60.677298h54.75293v67.955633c0 16.645822 10.556036 26.987429 27.56945 26.987429 7.106792 0 14.862998-1.776698 23.078694-5.256575 6.298088-2.756945 7.940002-9.349107 6.800465-14.305482z" fill="#3e3e3e"/></svg>

<?xml version="1.0" encoding="UTF-8" standalone="no"?>
<svg width="512px" height="197px" viewBox="0 0 512 197" version="1.1" xmlns="http://www.w3.org/2000/svg" xmlns:xlink="http://www.w3.org/1999/xlink" preserveAspectRatio="xMidYMid">
    <g>
        <path d="M0,180.242943 L0,142.71173 C0,133.950772 7.73169931,126.905245 17.2768558,126.905245 L52.6025121,126.905245 C76.2816071,126.905245 82.5184295,104.273789 82.5184295,92.3209009 C82.5184295,83.143337 79.6205739,74.5539215 74.6151869,68.6724387 C69.3157258,62.5765268 62.1537952,59.6051526 52.5963856,59.6051526 L17.2768558,59.6051526 C7.73169931,59.6112792 0,52.5473732 0,43.8170471 C0,35.1051007 7.73169931,28.010562 17.2768558,28.010562 L52.6025121,28.010562 C72.5260352,28.010562 89.9621812,35.4971995 101.694514,49.1226348 C111.570504,60.5792732 117.023129,75.9385206 117.023129,92.3147743 C117.023129,124.387235 94.4651915,158.505962 52.5963856,158.505962 L34.5169524,158.505962 L34.5169524,180.236816 C34.5169524,188.948763 26.7975062,196.043301 17.2768558,196.043301 C7.73169931,196.049428 0,188.954889 0,180.242943 L0,180.242943 Z M194.027668,27.9983089 C182.999888,27.9983089 173.699793,31.3679085 167.806057,37.347416 C167.438464,31.4046677 160.668633,28.2923831 153.990699,28.2923831 C146.761376,28.2923831 138.980665,31.8764117 138.980665,39.7367684 L137.877887,142.846514 C137.877887,146.583707 139.544307,149.732751 142.699477,151.956686 C145.413537,153.868168 149.028198,154.921934 152.869541,154.921934 C159.829296,154.921934 167.328187,151.25826 167.328187,143.220234 L168.418712,81.9670405 C168.418712,65.6459256 178.790952,54.2566792 193.641696,54.2566792 C195.418394,54.2566792 197.244104,54.4159693 199.192345,54.7590558 C207.193613,55.537127 211.776268,48.7121563 212.100975,42.015843 C212.395049,35.7483879 208.915172,29.0888339 200.521805,28.3965343 C198.346882,28.1269664 196.171959,27.9921824 194.027668,27.9921824 L194.027668,27.9983089 Z M343.760419,91.1262247 C343.760419,108.427587 337.572609,124.313717 326.361032,135.86838 C314.965659,147.58846 299.067276,154.045838 281.59437,154.045838 C264.121465,154.045838 248.223082,147.58846 236.827709,135.86838 C225.597753,124.313717 219.416069,108.42146 219.416069,91.1262247 C219.428322,55.1389016 246.164563,27.9983089 281.61275,27.9983089 C317.048684,27.9983089 343.772672,53.5214938 343.772672,91.1200981 L343.760419,91.1262247 Z M248.676446,91.2181229 C248.676446,110.749547 263.135091,126.035276 281.588244,126.035276 C300.047523,126.035276 314.506168,110.755674 314.506168,91.2242494 C314.506168,71.4967757 300.047523,56.0272506 281.588244,56.0272506 C263.135091,56.0272506 248.676446,71.4906492 248.676446,91.2242494 L248.676446,91.2181229 Z M511.652247,134.483781 C510.475951,129.380369 506.628481,126.078162 501.862029,126.078162 C501.157477,126.078162 500.452924,126.139427 499.656473,126.298717 C496.862769,126.972637 494.387645,127.315724 492.322999,127.315724 C486.729464,127.315724 484.125682,124.926371 484.125682,119.780074 L484.125682,59.102776 L498.61496,59.102776 C505.635981,59.102776 508.834037,52.4370954 508.834037,46.2492853 C508.834037,40.0492222 505.635981,33.3835416 498.61496,33.3835416 L484.125682,33.3835416 L484.125682,11.4260057 C484.131809,3.5840286 476.38173,0 469.170787,0 C461.965971,0 454.222018,3.57790206 454.222018,11.4260057 L454.222018,33.3774151 L399.450709,33.3774151 L399.450709,11.4260057 C399.462962,3.5840286 391.712883,0 384.50194,0 C377.297124,0 369.553172,3.57790206 369.553172,11.4260057 L369.553172,33.3774151 L360.718694,33.3774151 C357.594156,33.3774151 355.033261,34.7865204 353.305575,37.4393142 C351.87809,39.6203641 351.087766,42.5856117 351.087766,45.7714149 C351.087766,52.3880831 354.3961,59.102776 360.718694,59.102776 L369.540918,59.102776 L369.540918,127.058409 C369.540918,143.704231 380.109208,154.045838 397.110369,154.045838 C404.217161,154.045838 411.98562,152.26914 420.207442,148.789263 C426.499404,146.032318 428.135191,139.440156 426.995654,134.483781 C425.807104,129.380369 421.959634,126.078162 417.193182,126.078162 C416.500883,126.078162 415.784077,126.139427 414.99988,126.298717 C412.193922,126.972637 409.731051,127.315724 407.648026,127.315724 C402.060617,127.315724 399.462962,124.926371 399.462962,119.780074 L399.462962,59.102776 L454.215892,59.102776 L454.215892,127.058409 C454.215892,143.704231 464.771928,154.045838 481.785342,154.045838 C488.892134,154.045838 496.64834,152.26914 504.864036,148.789263 C511.162124,146.032318 512.804038,139.440156 511.664501,134.483781 L511.652247,134.483781 Z" fill="#3E3E3E"></path>
    </g>
</svg>
